X:1
T:Pachelbel's Frolics x2
L:1/8
Q:1/4=180
M:4/4
K:Dmaj
"D" D2 z2 F2 z2 |"A" A,2 z2 A,2 z2 |"Bm" B,2 z2 B,2 z2 |"F#m" F,2 z2 F,2 z2 |
"G" G,2 z2 G,2 z2 |"D" F,2 z2 D2 z2 |"G" G,2 z2 B,2 z2 |1"A7" A,2 z2"A" !^!C4 :|2
"A" A,4"D" D4 |:"D" D2 z2 D2 z2 |"A" A,2 z2 A,2 z2 |"Bm" B,2 z2 B,2 z2 |
"F#m" F,2 z2 F,2 z2 |"G" G,2 z2 G,2 z2 |"D" D,2 z2 D,2 z2 |"G" G,2 z2 G,2 z2 |1
"A7" A,2 z2"A" C4 :|2"A" A,4"D" D4 ||"A" A,4 z4 |"D" !fermata!D8 |

